static/images/icons/copy.svg

<?xml version="1.0" encoding="iso-8859-1"?>
<!DOCTYPE svg PUBLIC "-//W3C//DTD SVG 1.1//EN" "http://www.w3.org/Graphics/SVG/1.1/DTD/svg11.dtd">
<svg version="1.1" id="Capa_1" xmlns="http://www.w3.org/2000/svg" xmlns:xlink="http://www.w3.org/1999/xlink" x="0px" y="0px"
	 width="699.428px" height="699.428px" viewBox="0 0 699.428 699.428" style="enable-background:new 0 0 699.428 699.428;"
	 xml:space="preserve">
<g>
	<g id="_x33__21_">
		<g>
			<path fill="#04a763" d="M502.714,0c-2.71,0-262.286,0-262.286,0C194.178,0,153,42.425,153,87.429l-25.267,0.59
				c-46.228,0-84.019,41.834-84.019,86.838V612c0,45.004,41.179,87.428,87.429,87.428H459c46.249,0,87.428-42.424,87.428-87.428
				h21.857c46.25,0,87.429-42.424,87.429-87.428v-349.19L502.714,0z M459,655.715H131.143c-22.95,0-43.714-21.441-43.714-43.715
				V174.857c0-22.272,18.688-42.993,41.638-42.993L153,131.143v393.429C153,569.576,194.178,612,240.428,612h262.286
				C502.714,634.273,481.949,655.715,459,655.715z M612,524.572c0,22.271-20.765,43.713-43.715,43.713H240.428
				c-22.95,0-43.714-21.441-43.714-43.713V87.429c0-22.272,20.764-43.714,43.714-43.714H459c-0.351,50.337,0,87.975,0,87.975
				c0,45.419,40.872,86.882,87.428,86.882c0,0,23.213,0,65.572,0V524.572z M546.428,174.857c-23.277,0-43.714-42.293-43.714-64.981
				c0,0,0-22.994,0-65.484v-0.044L612,174.857H546.428z M502.714,306.394H306c-12.065,0-21.857,9.77-21.857,21.835
				c0,12.065,9.792,21.835,21.857,21.835h196.714c12.065,0,21.857-9.771,21.857-21.835
				C524.571,316.164,514.779,306.394,502.714,306.394z M502.714,415.57H306c-12.065,0-21.857,9.77-21.857,21.834
				c0,12.066,9.792,21.836,21.857,21.836h196.714c12.065,0,21.857-9.77,21.857-21.836C524.571,425.34,514.779,415.57,502.714,415.57
				z"/>
		</g>
	</g>
</g>
<g>
</g>
<g>
</g>
<g>
</g>
<g>
</g>
<g>
</g>
<g>
</g>
<g>
</g>
<g>
</g>
<g>
</g>
<g>
</g>
<g>
</g>
<g>
</g>
<g>
</g>
<g>
</g>
<g>
</g>
</svg>

<?xml version="1.0" encoding="UTF-8" standalone="no"?>
<!DOCTYPE svg PUBLIC "-//W3C//DTD SVG 1.1//EN" "http://www.w3.org/Graphics/SVG/1.1/DTD/svg11.dtd">
<svg width="100%" height="100%" viewBox="0 0 700 700" version="1.1" xmlns="http://www.w3.org/2000/svg" xmlns:xlink="http://www.w3.org/1999/xlink" xml:space="preserve" xmlns:serif="http://www.serif.com/" style="fill-rule:evenodd;clip-rule:evenodd;stroke-linejoin:round;stroke-miterlimit:2;">
    <g>
        <g id="_x33__21_">
            <g>
                <path d="M502.714,0L240.428,0C194.178,0 153,42.425 153,87.429L127.733,88.019C81.505,88.019 43.714,129.853 43.714,174.857L43.714,612C43.714,657.004 84.893,699.428 131.143,699.428L459,699.428C505.249,699.428 546.428,657.004 546.428,612L568.285,612C614.535,612 655.714,569.576 655.714,524.572L655.714,175.382L502.714,0ZM459,655.715L131.143,655.715C108.193,655.715 87.429,634.274 87.429,612L87.429,174.857C87.429,152.585 106.117,131.864 129.067,131.864L153,131.143L153,524.572C153,569.576 194.178,612 240.428,612L502.714,612C502.714,634.273 481.949,655.715 459,655.715ZM612,524.572C612,546.843 591.235,568.285 568.285,568.285L240.428,568.285C217.478,568.285 196.714,546.844 196.714,524.572L196.714,87.429C196.714,65.157 217.478,43.715 240.428,43.715L459,43.715C458.649,94.052 459,131.69 459,131.69C459,177.109 499.872,218.572 546.428,218.572L612,218.572L612,524.572ZM546.428,174.857C523.151,174.857 502.714,132.564 502.714,109.876L502.714,44.348L612,174.857L546.428,174.857ZM502.714,306.394L306,306.394C293.935,306.394 284.143,316.164 284.143,328.229C284.143,340.294 293.935,350.064 306,350.064L502.714,350.064C514.779,350.064 524.571,340.293 524.571,328.229C524.571,316.164 514.779,306.394 502.714,306.394ZM502.714,415.57L306,415.57C293.935,415.57 284.143,425.34 284.143,437.404C284.143,449.47 293.935,459.24 306,459.24L502.714,459.24C514.779,459.24 524.571,449.47 524.571,437.404C524.571,425.34 514.779,415.57 502.714,415.57Z" style="fill:rgb(40,83,125);fill-rule:nonzero;"/>
            </g>
        </g>
    </g>
</svg>
